X:4459
T:Mulkeen's
O:england
M:4/4
L:1/8
R:Reel
K:G
ge|dBAB GEDE|G2BG DGBG|~A3B AGED|(3EFG AB c2 Bc|d~B3 GEDE|
G2BG dGBG|~B3A BedB|AcBA  G2:| ga|bgg2 bgg2|aff2 aff2|bgg2 bgag|eaag
a2 ga| bgg2 agef|~g3e dBGA|~B3A Bed B|AcBA  G2:|


